Suru++-Ubuntu/apps/symbolic/org.gnome.ChromeGnomeShell-symbolic.svg

<svg width="16" height="16" version="1.1" viewBox="0 0 16 16" xmlns="http://www.w3.org/2000/svg">
 <path d="m11.640625 1c-2.7346 0-3.2475844 4.1542969-1.7089844 4.1542969 1.5379004 0 4.4438844-4.1542969 1.7089844-4.1542969zm-4.2109375 0.6386719c-0.04308-2e-4 -0.0901919-2.344e-4 -0.1386719 0.0097656-1.5496 0.1957-1.0046775 2.8182875-0.1796875 2.8671875 0.7988 0.048 1.6719563-2.8704 0.3164063-2.875l0.0019531-0.0019531zm-2.6875 0.96875c-0.09481-0.01-0.1995662 0.0125468-0.3164063 0.0605469-1.2456 0.5114-0.1894875 2.6223687 0.5078126 2.4804687 0.6329099-0.1286 0.7239237-2.4815156-0.1914063-2.5410156zm-2.0332031 1.7265625c-0.10826 0-0.2246794 0.0336531-0.3496094 0.1269531-0.99701 0.7441 0.335225 2.5423719 0.921875 2.2636719 0.51315-0.2441 0.1857744-2.363225-0.5722656-2.390625zm5.8886718 1.7148437c-2.1602999-0.037-5.0098937 1.0594188-5.4960937 3.2617188-0.52608 2.3827001 2.1668625 5.6894531 4.9765625 5.6894531 1.3822 0 2.976891-1.263581 3.275391-2.863281 0.22777-1.2198-2.6825254-0.730728-2.5781254 0.076172 0.12546 0.9675-0.6999756 1.445865-1.5097656 0.822265-2.5777-1.9855 4.268006-2.976953 3.816406-5.6894529-0.14054-0.8444-1.1881747-1.274675-2.4843748-1.296875z" fill="#808080"/>
</svg>

<svg xmlns="http://www.w3.org/2000/svg" width="16" height="16" version="1.1" viewBox="0 0 16 16">
 <path fill="#808080" d="M 11.640625 1 C 8.906025 1 8.3930406 5.1542969 9.9316406 5.1542969 C 11.469541 5.1542969 14.375525 1 11.640625 1 z M 7.4296875 1.6386719 C 7.3866075 1.6384719 7.3394956 1.6384375 7.2910156 1.6484375 C 5.7414156 1.8441375 6.2863381 4.466725 7.1113281 4.515625 C 7.9101281 4.563625 8.7832844 1.645225 7.4277344 1.640625 L 7.4296875 1.6386719 z M 4.7421875 2.6074219 C 4.6473775 2.5974219 4.5426213 2.6199687 4.4257812 2.6679688 C 3.1801812 3.1793688 4.2362937 5.2903375 4.9335938 5.1484375 C 5.5665037 5.0198375 5.6575175 2.6669219 4.7421875 2.6074219 z M 2.7089844 4.3339844 C 2.6007244 4.3339844 2.484305 4.3676375 2.359375 4.4609375 C 1.362365 5.2050375 2.6946 7.0033094 3.28125 6.7246094 C 3.7944 6.4805094 3.4670244 4.3613844 2.7089844 4.3339844 z M 8.5976562 6.0488281 C 6.4373563 6.0118281 3.5877625 7.1082469 3.1015625 9.3105469 C 2.5754825 11.693247 5.268425 15 8.078125 15 C 9.460325 15 11.055016 13.736419 11.353516 12.136719 C 11.581286 10.916919 8.6709906 11.405991 8.7753906 12.212891 C 8.9008506 13.180391 8.075415 13.658756 7.265625 13.035156 C 4.687925 11.049656 11.533631 10.058203 11.082031 7.3457031 C 10.941491 6.5013031 9.8938563 6.0710281 8.5976562 6.0488281 z"/>
</svg>
